public/svg/go.svg

<svg width="24" height="24" viewBox="0 0 24 24" fill="none" xmlns="http://www.w3.org/2000/svg">
<path fill-rule="evenodd" clip-rule="evenodd" d="M11.7532 9.54764C10.7512 9.80204 10.0672 9.99344 9.08084 10.2484C8.84204 10.312 8.82584 10.3282 8.61884 10.0888C8.38064 9.81825 8.20544 9.64304 7.87184 9.48344C6.86984 8.98964 5.89904 9.13304 4.99184 9.72284C3.91064 10.4236 3.35384 11.4592 3.37004 12.7492C3.38564 14.0236 4.26044 15.0754 5.51744 15.2506C6.59924 15.394 7.50584 15.0118 8.22164 14.1988C8.36504 14.0236 8.49164 13.8328 8.65124 13.6096H5.58104C5.24684 13.6096 5.16704 13.4026 5.27864 13.132C5.48564 12.6382 5.86724 11.8096 6.08984 11.3956C6.13784 11.2996 6.24884 11.1406 6.48764 11.1406H12.2776C12.2464 11.5708 12.2464 12.0004 12.1822 12.4306C12.0076 13.5778 11.578 14.629 10.8784 15.553C9.73244 17.0668 8.23784 18.007 6.34484 18.2614C4.78544 18.4684 3.33824 18.1654 2.06564 17.2102C0.887839 16.318 0.220039 15.139 0.0454386 13.6732C-0.161561 11.9368 0.347239 10.3756 1.39724 9.00585C2.52704 7.52385 4.02224 6.58424 5.85164 6.25004C7.34684 5.97884 8.77844 6.15405 10.0666 7.03004C10.9102 7.58805 11.5144 8.35245 11.9122 9.27645C12.0076 9.42045 11.944 9.49964 11.7532 9.54764Z" fill="#327C99"/>
<path d="M17.0181 18.3574C15.5709 18.3256 14.2503 17.911 13.1367 16.9552C12.1983 16.1428 11.6097 15.1072 11.4189 13.8808C11.1327 12.0808 11.6259 10.4878 12.7071 9.07002C13.8687 7.54002 15.2685 6.74382 17.1615 6.40962C18.7839 6.12282 20.3115 6.28182 21.6951 7.22202C22.9515 8.08182 23.7315 9.24522 23.9379 10.774C24.2079 12.925 23.5881 14.677 22.1085 16.1746C21.0585 17.2426 19.7703 17.911 18.2907 18.214C17.8617 18.2938 17.4321 18.3094 17.0187 18.3574H17.0181ZM20.8041 11.9212C20.7885 11.7142 20.7885 11.5552 20.7561 11.3956C20.4705 9.81822 19.0221 8.92662 17.5113 9.27702C16.0323 9.61122 15.0777 10.5514 14.7273 12.049C14.4411 13.291 15.0453 14.5498 16.1913 15.0598C17.0661 15.442 17.9409 15.394 18.7839 14.9638C20.0409 14.311 20.7249 13.2916 20.8041 11.9218V11.9212Z" fill="#327C99"/>
</svg>

<svg xmlns="http://www.w3.org/2000/svg" width="24" height="24" fill="#327c99" xmlns:v="https://vecta.io/nano"><path fill-rule="evenodd" d="M11.753 9.548l-2.672.701c-.239.064-.255.08-.462-.16-.238-.271-.413-.446-.747-.605-1.002-.494-1.973-.35-2.88.239-1.081.701-1.638 1.736-1.622 3.026.016 1.274.89 2.326 2.147 2.501 1.082.143 1.988-.239 2.704-1.052.143-.175.27-.366.43-.589h-3.07c-.334 0-.414-.207-.302-.478l.811-1.736c.048-.096.159-.255.398-.255h5.79l-.095 1.29c-.175 1.147-.604 2.198-1.304 3.122-1.146 1.514-2.641 2.454-4.534 2.708-1.559.207-3.007-.096-4.279-1.051a5 5 0 0 1-2.02-3.537c-.207-1.736.302-3.298 1.352-4.667 1.13-1.482 2.625-2.422 4.454-2.756 1.495-.271 2.927-.096 4.215.78.844.558 1.448 1.322 1.846 2.246.095.144.032.223-.159.271z"/><path d="M17.018 18.357c-1.447-.032-2.768-.446-3.881-1.402-.938-.812-1.527-1.848-1.718-3.074-.286-1.8.207-3.393 1.288-4.811 1.162-1.53 2.561-2.326 4.454-2.66 1.622-.287 3.15-.128 4.534.812 1.256.86 2.036 2.023 2.243 3.552.27 2.151-.35 3.903-1.829 5.401-1.05 1.068-2.338 1.736-3.818 2.039-.429.08-.859.095-1.272.143h-.001zm3.786-6.436l-.048-.526c-.286-1.577-1.734-2.469-3.245-2.119-1.479.334-2.434 1.274-2.784 2.772-.286 1.242.318 2.501 1.464 3.011.875.382 1.75.334 2.593-.096 1.257-.653 1.941-1.672 2.02-3.042v-.001z"/></svg>
